X:1737
T:Earl of Dalhousie's Happy Return to Scotland, The
O:england
R:Reel
C:Niel Gow
D:Abby Newton: Crossing to Scotland
M:4/4
L:1/8
K:D
D3 E G>F E<D|C2 E2 A,2 C2|D3 E G>F E<D|d4 A2 d2|B2 g>B A2 f>A|
G>F E>D C>D E>F|[1G>F E>D E>F G<A|B4 c2 d2:|[2G>F E>D A>D C<E|D6 (3ABc||
d4 f3 d|e>d c>B A>B c<A|d3 e f>e d<c|B4 A2 (3ABc|
d2 D2 F>G A<E|D2 A2 B>A G<F|E3 D E>F G<A|B4 A2 (3ABc|


